.gitbook/assets/Community.svg

<svg xmlns="http://www.w3.org/2000/svg" width="404" height="251" fill="none" viewBox="0 0 404 251"><path fill="#F0894F" d="M0 0h404v251H0V0Z"/><path fill="#FBDCC1" d="m185.355 122.125 16.313 15.786 16.346-15.786c1.554-2.105 1.832-8.119-3.263-11.727-6.142-4.351-11.374 0-13.083 2.706-1.709-2.706-7.768-6.315-13.05-2.706-5.283 3.608-4.817 9.622-3.263 11.727Z"/><path fill="#572900" fill-rule="evenodd" d="M205.407 106.144c3.246-1.25 7.21-1.146 11.178 1.665 3.301 2.338 4.92 5.522 5.419 8.49.47 2.793-.006 5.77-1.438 7.71l-.157.213-18.743 18.102-18.707-18.103-.156-.212c-1.4-1.897-1.961-4.842-1.514-7.678.475-3.01 2.119-6.217 5.539-8.553 3.627-2.478 7.536-2.437 10.65-1.408a14.52 14.52 0 0 1 4.065 2.116 13.252 13.252 0 0 1 3.864-2.342Zm2.281 5.921c-1.537.592-2.775 1.842-3.337 2.733a3.174 3.174 0 0 1-5.365 0c-.406-.644-1.702-1.81-3.498-2.403-1.663-.55-3.425-.509-5.081.622-1.862 1.272-2.626 2.877-2.85 4.302-.218 1.38.087 2.399.273 2.786l13.841 13.394 13.859-13.386a2.35 2.35 0 0 0 .046-.108 3.59 3.59 0 0 0 .178-.656 5.89 5.89 0 0 0-.007-1.998c-.247-1.467-1.036-3.095-2.829-4.365-2.174-1.54-3.897-1.435-5.23-.921Z" clip-rule="evenodd"/><path fill="#572900" fill-rule="evenodd" d="M201.758 86.345c-19.272 0-34.896 15.623-34.896 34.896a3.173 3.173 0 1 1-6.345 0c0-22.777 18.464-41.241 41.241-41.241S243 98.464 243 121.241a3.174 3.174 0 0 1-6.345 0c0-19.273-15.624-34.896-34.897-34.896Z" clip-rule="evenodd"/><path fill="#572900" fill-rule="evenodd" d="M204.931 159.311a3.172 3.172 0 0 0 3.172 3.172c19.273 0 34.897-15.624 34.897-34.897a3.173 3.173 0 0 0-6.345 0c0 15.769-12.783 28.552-28.552 28.552a3.172 3.172 0 0 0-3.172 3.173Z" clip-rule="evenodd"/><path fill="#FBDCC1" d="M151 121.241c0-7.008 5.681-12.689 12.69-12.689 7.008 0 12.689 5.681 12.689 12.689v19.035c0 7.008-5.681 12.689-12.689 12.689-7.009 0-12.69-5.681-12.69-12.689v-19.035Z"/><path fill="#572900" fill-rule="evenodd" d="M170.034 140.276v-19.035a6.344 6.344 0 0 0-6.344-6.344 6.344 6.344 0 0 0-6.345 6.344v19.035a6.345 6.345 0 1 0 12.689 0Zm-6.344-31.724c-7.009 0-12.69 5.681-12.69 12.689v19.035c0 7.008 5.681 12.689 12.69 12.689 7.008 0 12.689-5.681 12.689-12.689v-19.035c0-7.008-5.681-12.689-12.689-12.689Z" clip-rule="evenodd"/><path fill="#FBDCC1" d="M189.069 159.31c0-7.008 5.681-12.689 12.689-12.689 7.009 0 12.69 5.681 12.69 12.689S208.767 172 201.758 172c-7.008 0-12.689-5.682-12.689-12.69Z"/><path fill="#572900" fill-rule="evenodd" d="M195.414 159.31a6.344 6.344 0 1 0 12.689 0 6.345 6.345 0 1 0-12.689 0Zm6.344-12.689c-7.008 0-12.689 5.681-12.689 12.689S194.75 172 201.758 172c7.009 0 12.69-5.682 12.69-12.69 0-7.008-5.681-12.689-12.69-12.689Z" clip-rule="evenodd"/><path fill="#FBDCC1" d="M227.138 121.241c0-7.008 5.681-12.689 12.689-12.689 7.009 0 12.69 5.681 12.69 12.689v19.035c0 7.008-5.681 12.689-12.69 12.689-7.008 0-12.689-5.681-12.689-12.689v-19.035Z"/><path fill="#572900" fill-rule="evenodd" d="M246.172 140.276v-19.035a6.344 6.344 0 0 0-12.689 0v19.035a6.344 6.344 0 1 0 12.689 0Zm-6.345-31.724c-7.008 0-12.689 5.681-12.689 12.689v19.035c0 7.008 5.681 12.689 12.689 12.689 7.009 0 12.69-5.681 12.69-12.689v-19.035c0-7.008-5.681-12.689-12.69-12.689Z" clip-rule="evenodd"/></svg>

<svg width="404" height="251" viewBox="0 0 404 251" fill="none" xmlns="http://www.w3.org/2000/svg">
<path d="M0 0L404 0L404 251L0 251L0 0Z" fill="#F0894F"/>
<path d="M185.355 122.125L201.668 137.911L218.014 122.125C219.568 120.02 219.846 114.006 214.751 110.398C208.609 106.047 203.377 110.398 201.668 113.104C199.959 110.398 193.9 106.789 188.618 110.398C183.335 114.006 183.801 120.02 185.355 122.125Z" fill="#FBDCC1"/>
<path fill-rule="evenodd" clip-rule="evenodd" d="M205.407 106.144C208.653 104.894 212.617 104.998 216.585 107.809C219.886 110.147 221.505 113.331 222.004 116.299C222.474 119.092 221.998 122.069 220.566 124.009L220.409 124.222L201.666 142.324L182.959 124.221L182.803 124.009C181.403 122.112 180.842 119.167 181.289 116.331C181.764 113.321 183.408 110.114 186.828 107.778C190.455 105.3 194.364 105.341 197.478 106.37C198.969 106.863 200.361 107.607 201.543 108.486C202.614 107.562 203.913 106.72 205.407 106.144ZM207.688 112.065C206.151 112.657 204.913 113.907 204.351 114.798C203.769 115.718 202.757 116.276 201.668 116.276C200.58 116.276 199.567 115.718 198.986 114.798C198.58 114.154 197.284 112.988 195.488 112.395C193.825 111.845 192.063 111.886 190.407 113.017C188.545 114.289 187.781 115.894 187.557 117.319C187.339 118.699 187.644 119.718 187.83 120.105L201.671 133.499L215.53 120.113C215.544 120.083 215.559 120.047 215.576 120.005C215.639 119.844 215.704 119.624 215.754 119.349C215.854 118.796 215.874 118.102 215.747 117.351C215.5 115.884 214.711 114.256 212.918 112.986C210.744 111.446 209.021 111.551 207.688 112.065Z" fill="#572900"/>
<path fill-rule="evenodd" clip-rule="evenodd" d="M201.758 86.3448C182.486 86.3448 166.862 101.968 166.862 121.241C166.862 122.993 165.442 124.414 163.689 124.414C161.937 124.414 160.517 122.993 160.517 121.241C160.517 98.4643 178.981 80 201.758 80C224.535 80 243 98.4643 243 121.241C243 122.993 241.579 124.414 239.827 124.414C238.075 124.414 236.655 122.993 236.655 121.241C236.655 101.968 221.031 86.3448 201.758 86.3448Z" fill="#572900"/>
<path fill-rule="evenodd" clip-rule="evenodd" d="M204.931 159.311C204.931 161.063 206.351 162.483 208.103 162.483C227.376 162.483 243 146.859 243 127.586C243 125.834 241.579 124.414 239.827 124.414C238.075 124.414 236.655 125.834 236.655 127.586C236.655 143.355 223.872 156.138 208.103 156.138C206.351 156.138 204.931 157.558 204.931 159.311Z" fill="#572900"/>
<path d="M151 121.241C151 114.233 156.681 108.552 163.69 108.552V108.552C170.698 108.552 176.379 114.233 176.379 121.241V140.276C176.379 147.284 170.698 152.965 163.69 152.965V152.965C156.681 152.965 151 147.284 151 140.276V121.241Z" fill="#FBDCC1"/>
<path fill-rule="evenodd" clip-rule="evenodd" d="M170.034 140.276V121.241C170.034 117.737 167.194 114.897 163.69 114.897C160.185 114.897 157.345 117.737 157.345 121.241V140.276C157.345 143.78 160.185 146.621 163.69 146.621C167.194 146.621 170.034 143.78 170.034 140.276ZM163.69 108.552C156.681 108.552 151 114.233 151 121.241V140.276C151 147.284 156.681 152.965 163.69 152.965C170.698 152.965 176.379 147.284 176.379 140.276V121.241C176.379 114.233 170.698 108.552 163.69 108.552Z" fill="#572900"/>
<path d="M189.069 159.31C189.069 152.302 194.75 146.621 201.758 146.621V146.621C208.767 146.621 214.448 152.302 214.448 159.31V159.31C214.448 166.318 208.767 172 201.758 172V172C194.75 172 189.069 166.318 189.069 159.31V159.31Z" fill="#FBDCC1"/>
<path fill-rule="evenodd" clip-rule="evenodd" d="M195.414 159.31C195.414 162.814 198.254 165.655 201.758 165.655C205.263 165.655 208.103 162.814 208.103 159.31C208.103 155.806 205.263 152.965 201.758 152.965C198.254 152.965 195.414 155.806 195.414 159.31ZM201.758 146.621C194.75 146.621 189.069 152.302 189.069 159.31C189.069 166.318 194.75 172 201.758 172C208.767 172 214.448 166.318 214.448 159.31C214.448 152.302 208.767 146.621 201.758 146.621Z" fill="#572900"/>
<path d="M227.138 121.241C227.138 114.233 232.819 108.552 239.827 108.552C246.836 108.552 252.517 114.233 252.517 121.241V140.276C252.517 147.284 246.836 152.965 239.827 152.965C232.819 152.965 227.138 147.284 227.138 140.276V121.241Z" fill="#FBDCC1"/>
<path fill-rule="evenodd" clip-rule="evenodd" d="M246.172 140.276V121.241C246.172 117.737 243.331 114.897 239.827 114.897C236.323 114.897 233.483 117.737 233.483 121.241V140.276C233.483 143.78 236.323 146.621 239.827 146.621C243.331 146.621 246.172 143.78 246.172 140.276ZM239.827 108.552C232.819 108.552 227.138 114.233 227.138 121.241V140.276C227.138 147.284 232.819 152.965 239.827 152.965C246.836 152.965 252.517 147.284 252.517 140.276V121.241C252.517 114.233 246.836 108.552 239.827 108.552Z" fill="#572900"/>
</svg>
